public/logo-intuit.svg

<?xml version="1.0" encoding="UTF-8"?><svg id="a" xmlns="http://www.w3.org/2000/svg" viewBox="0 0 269.65 69"><defs><style>.b,.c,.d{stroke-width:0px;}.c{fill:#2ca01c;}.d{fill:#fff;}</style></defs><path class="c" d="m30.77,61.54c16.99,0,30.77-13.78,30.77-30.77S47.76,0,30.77,0,0,13.78,0,30.77s13.77,30.77,30.77,30.77Z"/><path class="d" d="m20.51,18.8c-6.61,0-11.97,5.36-11.97,11.97s5.35,11.96,11.97,11.96h1.71v-4.44h-1.71c-4.15,0-7.52-3.37-7.52-7.52,0-4.15,3.37-7.52,7.52-7.52h4.11v23.25c0,2.45,1.99,4.44,4.44,4.44V18.8h-8.55,0Zm20.52,23.93c6.61,0,11.97-5.36,11.97-11.96s-5.35-11.96-11.97-11.96h-1.71v4.44h1.71c4.15,0,7.52,3.37,7.52,7.52s-3.37,7.52-7.52,7.52h-4.11V15.04c0-2.45-1.99-4.44-4.44-4.44v32.13h8.55s0,0,0,0Z"/><path class="b" d="m90.75,69h-4.76v-12.05h-.08c-1.23,1.9-3.65,3.09-6.31,3.09-5.79,0-9.36-4.6-9.36-10.15s3.81-10,9.24-10c3.49,0,5.63,1.7,6.58,3.21h.12v-2.66h4.56v28.56h0s0,0,0,0Zm-10.19-12.93c3.49,0,5.59-3.13,5.59-6.11s-2.1-6.19-5.59-6.19c-3.68,0-5.47,3.13-5.47,6.11,0,2.97,1.78,6.19,5.47,6.19h0Zm31.55,3.41h-4.52v-3.06h-.08c-.83,1.9-3.09,3.61-5.91,3.61-4.96,0-7.02-3.81-7.02-7.69v-11.9h4.76v10.55c0,2.26.51,5.07,3.57,5.07s4.44-2.62,4.44-5.15v-10.47h4.76v19.03s0,0,0,0Zm4.78-19.45h4.76v19.04h-4.76s0-19.04,0-19.04Zm22.55,5.69c-.75-1.07-2.38-1.87-3.93-1.87-3.49,0-5.24,3.13-5.24,6.11s1.79,6.11,5.39,6.11c1.47,0,3.09-.6,4.01-1.7l2.97,3.01c-1.59,1.7-4.21,2.66-7.02,2.66-5.63,0-10.31-3.73-10.31-10.07s4.6-10.07,10.19-10.07c2.78,0,5.67,1.11,7.18,2.97l-3.25,2.85h0Zm5.6-16.22h4.76v18.95h.12l7.22-8.01h6.11l-8.25,8.61,8.77,10.43h-6.3l-7.54-9.76h-.12v9.76h-4.76v-29.97h0Zm25.65,0v13.37h.12c.99-1.23,2.89-2.97,6.39-2.97,5.43,0,9.24,4.36,9.24,10s-3.57,10.15-9.36,10.15c-2.66,0-5.24-1.23-6.54-3.41h-.08v2.86h-4.52v-29.99h4.76Zm5.43,14.28c-3.49,0-5.59,3.21-5.59,6.19s2.1,6.11,5.59,6.11c3.69,0,5.47-3.21,5.47-6.19s-1.78-6.11-5.47-6.11h0Zm22.72-3.89c5.75,0,10.35,4.01,10.35,10s-4.6,10.15-10.35,10.15-10.35-4.16-10.35-10.15,4.6-10,10.35-10Zm0,16.18c3.77,0,5.51-3.21,5.51-6.19s-1.74-6.11-5.51-6.11-5.51,3.13-5.51,6.11,1.74,6.19,5.51,6.19Zm22.78-16.18c5.75,0,10.35,4.01,10.35,10s-4.6,10.15-10.35,10.15-10.35-4.16-10.35-10.15,4.6-10,10.35-10Zm0,16.18c3.77,0,5.51-3.21,5.51-6.19s-1.74-6.11-5.51-6.11-5.51,3.13-5.51,6.11c0,2.97,1.74,6.19,5.51,6.19Zm13.23-26.57h4.76v18.95h.12l7.22-8.01h6.1l-8.24,8.61,8.76,10.43h-6.3l-7.54-9.76h-.12v9.76h-4.76v-29.97h0,0Zm31.71,16.02c-.83-1.11-2.42-2.06-4.16-2.06-1.5,0-3.06.56-3.06,2.07s1.47,1.87,4.12,2.5c2.82.68,6.15,1.94,6.15,5.67,0,4.64-3.77,6.35-7.93,6.35-2.93,0-5.99-1.11-7.82-3.13l3.13-2.93c1.03,1.35,2.82,2.38,4.88,2.38,1.39,0,3.06-.56,3.06-2.26,0-1.59-1.47-2.06-4.36-2.74-2.82-.68-5.63-1.82-5.63-5.39,0-4.25,3.81-6.06,7.58-6.06,2.73,0,5.59.95,7.14,2.89l-3.08,2.74h0ZM122.38,14.46c0,4.83,3.86,8.35,8.77,8.35s8.78-3.52,8.78-8.35V3.38h-4.76v10.52c0,2.6-1.74,4.35-4.03,4.35s-4.04-1.74-4.04-4.35V3.38h-4.75s.03,11.08.03,11.08Zm30.27-6.63h5.68v14.6h4.75V7.83h5.67V3.38h-16.1v4.45h0Zm-3.08-4.45h-4.75v19.06h4.75V3.38Zm-46.38,4.45h5.68v14.6h4.75V7.83h5.67V3.38h-16.09v4.45h0Zm-24.94-4.45h-4.75v19.06h4.75V3.38Zm22.44,7.97c0-4.83-3.87-8.35-8.78-8.35s-8.78,3.52-8.78,8.35v11.08h4.75v-10.52c0-2.6,1.74-4.35,4.03-4.35s4.03,1.74,4.03,4.35v10.52h4.75v-11.08s-.01,0-.01,0Z"/></svg>

<svg width="270" height="69" viewBox="0 0 270 69" fill="none" xmlns="http://www.w3.org/2000/svg">
<g clip-path="url(#clip0_24_2)">
<path d="M30.77 61.54C47.76 61.54 61.54 47.76 61.54 30.77C61.54 13.78 47.76 0 30.77 0C13.78 0 0 13.78 0 30.77C0 47.76 13.77 61.54 30.77 61.54Z" fill="#BDBDBD"/>
<path d="M20.51 18.8C13.9 18.8 8.54004 24.16 8.54004 30.77C8.54004 37.38 13.89 42.73 20.51 42.73H22.22V38.29H20.51C16.36 38.29 12.99 34.92 12.99 30.77C12.99 26.62 16.36 23.25 20.51 23.25H24.62V46.5C24.62 48.95 26.61 50.94 29.06 50.94V18.8H20.51ZM41.03 42.73C47.64 42.73 53 37.37 53 30.77C53 24.17 47.65 18.81 41.03 18.81H39.32V23.25H41.03C45.18 23.25 48.55 26.62 48.55 30.77C48.55 34.92 45.18 38.29 41.03 38.29H36.92V15.04C36.92 12.59 34.93 10.6 32.48 10.6V42.73H41.03Z" fill="white"/>
<path d="M90.75 69H85.99V56.95H85.91C84.68 58.85 82.26 60.04 79.6 60.04C73.81 60.04 70.24 55.44 70.24 49.89C70.24 44.34 74.05 39.89 79.48 39.89C82.97 39.89 85.11 41.59 86.06 43.1H86.18V40.44H90.74V69H90.75ZM80.56 56.07C84.05 56.07 86.15 52.94 86.15 49.96C86.15 46.98 84.05 43.77 80.56 43.77C76.88 43.77 75.09 46.9 75.09 49.88C75.09 52.85 76.87 56.07 80.56 56.07ZM112.11 59.48H107.59V56.42H107.51C106.68 58.32 104.42 60.03 101.6 60.03C96.64 60.03 94.58 56.22 94.58 52.34V40.44H99.34V50.99C99.34 53.25 99.85 56.06 102.91 56.06C105.97 56.06 107.35 53.44 107.35 50.91V40.44H112.11V59.47V59.48ZM116.89 40.03H121.65V59.07H116.89V40.03ZM139.44 45.72C138.69 44.65 137.06 43.85 135.51 43.85C132.02 43.85 130.27 46.98 130.27 49.96C130.27 52.94 132.06 56.07 135.66 56.07C137.13 56.07 138.75 55.47 139.67 54.37L142.64 57.38C141.05 59.08 138.43 60.04 135.62 60.04C129.99 60.04 125.31 56.31 125.31 49.97C125.31 43.63 129.91 39.9 135.5 39.9C138.28 39.9 141.17 41.01 142.68 42.87L139.43 45.72H139.44ZM145.04 29.5H149.8V48.45H149.92L157.14 40.44H163.25L155 49.05L163.77 59.48H157.47L149.93 49.72H149.81V59.48H145.05V29.51L145.04 29.5ZM170.69 29.5V42.87H170.81C171.8 41.64 173.7 39.9 177.2 39.9C182.63 39.9 186.44 44.26 186.44 49.9C186.44 55.54 182.87 60.05 177.08 60.05C174.42 60.05 171.84 58.82 170.54 56.64H170.46V59.5H165.94V29.51H170.7L170.69 29.5ZM176.12 43.78C172.63 43.78 170.53 46.99 170.53 49.97C170.53 52.95 172.63 56.08 176.12 56.08C179.81 56.08 181.59 52.87 181.59 49.89C181.59 46.91 179.81 43.78 176.12 43.78ZM198.84 39.89C204.59 39.89 209.19 43.9 209.19 49.89C209.19 55.88 204.59 60.04 198.84 60.04C193.09 60.04 188.49 55.88 188.49 49.89C188.49 43.9 193.09 39.89 198.84 39.89ZM198.84 56.07C202.61 56.07 204.35 52.86 204.35 49.88C204.35 46.9 202.61 43.77 198.84 43.77C195.07 43.77 193.33 46.9 193.33 49.88C193.33 52.86 195.07 56.07 198.84 56.07ZM221.62 39.89C227.37 39.89 231.97 43.9 231.97 49.89C231.97 55.88 227.37 60.04 221.62 60.04C215.87 60.04 211.27 55.88 211.27 49.89C211.27 43.9 215.87 39.89 221.62 39.89ZM221.62 56.07C225.39 56.07 227.13 52.86 227.13 49.88C227.13 46.9 225.39 43.77 221.62 43.77C217.85 43.77 216.11 46.9 216.11 49.88C216.11 52.85 217.85 56.07 221.62 56.07ZM234.85 29.5H239.61V48.45H239.73L246.95 40.44H253.05L244.81 49.05L253.57 59.48H247.27L239.73 49.72H239.61V59.48H234.85V29.51V29.5ZM266.56 45.52C265.73 44.41 264.14 43.46 262.4 43.46C260.9 43.46 259.34 44.02 259.34 45.53C259.34 47.04 260.81 47.4 263.46 48.03C266.28 48.71 269.61 49.97 269.61 53.7C269.61 58.34 265.84 60.05 261.68 60.05C258.75 60.05 255.69 58.94 253.86 56.92L256.99 53.99C258.02 55.34 259.81 56.37 261.87 56.37C263.26 56.37 264.93 55.81 264.93 54.11C264.93 52.52 263.46 52.05 260.57 51.37C257.75 50.69 254.94 49.55 254.94 45.98C254.94 41.73 258.75 39.92 262.52 39.92C265.25 39.92 268.11 40.87 269.66 42.81L266.58 45.55L266.56 45.52ZM122.38 14.46C122.38 19.29 126.24 22.81 131.15 22.81C136.06 22.81 139.93 19.29 139.93 14.46V3.38H135.17V13.9C135.17 16.5 133.43 18.25 131.14 18.25C128.85 18.25 127.1 16.51 127.1 13.9V3.38H122.35L122.38 14.46ZM152.65 7.83H158.33V22.43H163.08V7.83H168.75V3.38H152.65V7.83ZM149.57 3.38H144.82V22.44H149.57V3.38ZM103.19 7.83H108.87V22.43H113.62V7.83H119.29V3.38H103.2V7.83H103.19ZM78.25 3.38H73.5V22.44H78.25V3.38ZM100.69 11.35C100.69 6.52 96.82 3 91.91 3C87 3 83.13 6.52 83.13 11.35V22.43H87.88V11.91C87.88 9.31 89.62 7.56 91.91 7.56C94.2 7.56 95.94 9.3 95.94 11.91V22.43H100.69V11.35Z" fill="#BDBDBD"/>
</g>
<defs>
<clipPath id="clip0_24_2">
<rect width="269.65" height="69" fill="white"/>
</clipPath>
</defs>
</svg>
